svg/bell_ring.svg

<svg xmlns="http://www.w3.org/2000/svg" viewBox="0 0 24 24"><path d="M21 19v1H3v-1l2-2v-6c0-3.1 2.03-5.83 5-6.71V4a2 2 0 0 1 2-2 2 2 0 0 1 2 2v.29c2.97.88 5 3.61 5 6.71v6zm-7 2a2 2 0 0 1-2 2 2 2 0 0 1-2-2m9.75-17.81-1.42 1.42A8.98 8.98 0 0 1 21 11h2c0-2.93-1.16-5.75-3.25-7.81M1 11h2c0-2.4.96-4.7 2.67-6.39L4.25 3.19A10.96 10.96 0 0 0 1 11"/></svg>

<?xml version="1.0" encoding="UTF-8"?><!DOCTYPE svg PUBLIC "-//W3C//DTD SVG 1.1//EN" "http://www.w3.org/Graphics/SVG/1.1/DTD/svg11.dtd"><svg xmlns="http://www.w3.org/2000/svg" xmlns:xlink="http://www.w3.org/1999/xlink" version="1.1" id="mdi-bell-ring" width="24" height="24" viewBox="0 0 24 24"><path d="M21,19V20H3V19L5,17V11C5,7.9 7.03,5.17 10,4.29C10,4.19 10,4.1 10,4A2,2 0 0,1 12,2A2,2 0 0,1 14,4C14,4.1 14,4.19 14,4.29C16.97,5.17 19,7.9 19,11V17L21,19M14,21A2,2 0 0,1 12,23A2,2 0 0,1 10,21M19.75,3.19L18.33,4.61C20.04,6.3 21,8.6 21,11H23C23,8.07 21.84,5.25 19.75,3.19M1,11H3C3,8.6 3.96,6.3 5.67,4.61L4.25,3.19C2.16,5.25 1,8.07 1,11Z" /></svg>
